public/external-logos/codecov-logo.svg

<svg width="169" height="33" viewBox="0 0 169 33" fill="none" xmlns="http://www.w3.org/2000/svg">
<path d="M53.9559 8.27609C56.3818 8.27609 58.3226 9.08651 59.9399 10.7614L60.0477 10.8694L62.2041 8.76234L62.1502 8.65429C60.2094 6.49317 57.2444 5.30456 53.8481 5.30456C47.1632 5.30456 42.2574 9.95096 42.2574 16.3803C42.2574 22.8096 47.1093 27.456 53.7941 27.456C57.1905 27.456 60.1555 26.2674 62.1502 24.0522L62.2041 23.9442L60.0477 21.8371L59.9399 21.9452C58.3226 23.62 56.3279 24.4845 53.9559 24.4845C49.104 24.4845 45.5998 21.0807 45.5998 16.3803C45.5998 11.6799 49.1579 8.27609 53.9559 8.27609ZM71.4227 24.6465C68.2421 24.6465 66.0317 22.3233 66.0317 19.0817C66.0317 15.786 68.2421 13.5168 71.4227 13.5168C74.6034 13.5168 76.8138 15.786 76.8138 19.0817C76.8138 22.3774 74.6034 24.6465 71.4227 24.6465ZM71.4227 10.7073C66.4091 10.7073 62.7971 14.2192 62.7971 19.0817C62.7971 23.9442 66.4091 27.456 71.4227 27.456C76.4364 27.456 80.0484 23.9442 80.0484 19.0817C80.0484 14.2192 76.3825 10.7073 71.4227 10.7073ZM89.7522 24.6465C86.5715 24.6465 84.3073 22.3233 84.3073 19.0276C84.3073 15.7319 86.5176 13.4087 89.7522 13.4087C92.9329 13.4087 95.1432 15.7319 95.1432 19.0276C95.1432 22.3233 92.9329 24.6465 89.7522 24.6465ZM95.1432 12.9765C93.7954 11.4097 91.8547 10.5993 89.5365 10.5993C84.5768 10.5993 81.1266 14.0571 81.1266 19.0276C81.1266 23.9982 84.5768 27.456 89.5365 27.456C91.9086 27.456 93.9572 26.5375 95.251 24.9167V27.2399H98.3239V4.224H95.0893L95.1432 12.9765ZM108.675 13.4087C111.316 13.4087 113.311 15.1917 113.688 17.785H103.715C104.038 15.1917 105.979 13.4087 108.675 13.4087ZM108.675 10.7073C103.931 10.7073 100.534 14.2192 100.534 19.0817C100.534 23.9982 104.092 27.456 109.268 27.456C111.963 27.456 114.173 26.5375 115.683 24.8086L115.737 24.7546L113.958 22.7015L113.85 22.8096C112.718 24.0522 111.208 24.7006 109.322 24.7006C106.303 24.7006 104.092 22.9717 103.661 20.2163H116.599V20.1082C116.653 19.8381 116.653 19.4599 116.653 19.1897C116.707 14.1651 113.365 10.7073 108.675 10.7073ZM131.425 22.3774C130.454 23.8361 128.945 24.6465 127.058 24.6465C123.769 24.6465 121.559 22.3774 121.559 19.0817C121.559 15.786 123.823 13.5168 127.058 13.5168C128.945 13.5168 130.454 14.2732 131.425 15.786L131.479 15.894L133.958 14.3272L133.905 14.2192C132.611 12.004 130.131 10.7073 127.112 10.7073C122.044 10.7073 118.325 14.2192 118.325 19.0817C118.325 23.9442 122.044 27.456 127.112 27.456C130.131 27.456 132.611 26.1593 133.905 23.8902L133.958 23.7821L131.479 22.2693L131.425 22.3774ZM143.662 24.6465C140.482 24.6465 138.271 22.3233 138.271 19.0817C138.271 15.786 140.482 13.5168 143.662 13.5168C146.843 13.5168 149.053 15.786 149.053 19.0817C149.053 22.3774 146.843 24.6465 143.662 24.6465ZM143.662 10.7073C138.649 10.7073 135.037 14.2192 135.037 19.0817C135.037 23.9442 138.649 27.456 143.662 27.456C148.676 27.456 152.288 23.9442 152.288 19.0817C152.288 14.2192 148.622 10.7073 143.662 10.7073ZM165.873 10.7073L160.374 23.3499L154.983 10.7073H151.695L158.757 26.8617L158.811 26.9157H161.938L169 10.7073H165.873ZM17.1487 0C7.69786 0 0 7.6383 0 16.957V17.0334L2.89622 18.7138H2.97244C4.80164 17.4917 7.01191 17.0334 9.22219 17.4153C10.7465 17.7209 12.1946 18.4083 13.3379 19.4777L13.8714 19.936L14.1763 19.3249C14.4811 18.7138 14.786 18.1792 15.0909 17.6445C15.2433 17.4153 15.3957 17.2626 15.5482 17.0334L15.853 16.6515L15.4719 16.346C13.8714 15.0475 11.966 14.1309 9.90814 13.7489C7.92651 13.367 5.94488 13.4434 4.11569 14.0545C5.48758 8.02022 10.8227 3.74277 17.1487 3.74277C20.7309 3.74277 24.0844 5.11766 26.5995 7.6383C28.4287 9.39511 29.6482 11.6102 30.1817 14.0545C29.0385 13.6726 27.819 13.5198 26.5995 13.5198H26.3709C25.9136 13.5198 25.4563 13.5962 24.9228 13.5962H24.8466C24.6941 13.5962 24.4655 13.6726 24.313 13.6726C24.0082 13.7489 23.7795 13.7489 23.4747 13.8253L23.246 13.9017C23.0174 13.9781 22.7887 14.0545 22.5601 14.1309H22.4839C21.9503 14.2836 21.493 14.5128 20.9595 14.7419C20.7309 14.8183 20.5022 14.9711 20.2736 15.1238H20.1974C19.0541 15.8113 17.9871 16.6515 17.1487 17.7209L17.0725 17.8736C16.8438 18.1792 16.6914 18.4083 16.539 18.5611C16.3865 18.7138 16.3103 18.943 16.1579 19.1721L16.0817 19.3249C15.9292 19.5541 15.853 19.7832 15.7768 19.936V20.0124C15.5482 20.4706 15.3195 21.0053 15.1671 21.54V21.6164C14.786 22.8385 14.5573 24.137 14.5573 25.5119V25.6647C14.5573 25.8175 14.5573 26.0466 14.5573 26.1994C14.5573 26.2758 14.5573 26.3521 14.5573 26.4285C14.5573 26.5049 14.5573 26.6577 14.5573 26.7341V26.8104V26.9632C14.5573 27.116 14.6336 27.3451 14.6336 27.4979C15.0146 29.3311 15.853 31.0879 17.1487 32.6919L17.2249 32.7683L17.3011 32.6919C17.8346 32.0809 19.0541 30.1713 19.2065 29.0255C18.5968 27.8798 18.2919 26.5813 18.2919 25.3592C18.2919 21.0817 21.6455 17.4917 25.9898 17.2626H26.2947C28.0476 17.1862 29.8006 17.7209 31.2487 18.7138H31.325L34.2212 17.0334V16.957C34.2212 12.4504 32.4682 8.17298 29.1909 4.9649C25.9898 1.75681 21.7217 0 17.1487 0Z" fill="#FF0077"/>
</svg>

<svg width="169" height="33" fill="none" xmlns="http://www.w3.org/2000/svg"><path d="M53.956 8.276c2.426 0 4.367.81 5.984 2.485l.108.108 2.156-2.107-.054-.108c-1.94-2.16-4.906-3.35-8.302-3.35-6.685 0-11.59 4.647-11.59 11.076 0 6.43 4.851 11.076 11.536 11.076 3.397 0 6.362-1.189 8.356-3.404l.054-.108-2.156-2.107-.108.108c-1.617 1.675-3.612 2.54-5.984 2.54-4.852 0-8.356-3.404-8.356-8.105 0-4.7 3.558-8.104 8.356-8.104Zm17.467 16.37c-3.18 0-5.391-2.323-5.391-5.564 0-3.296 2.21-5.565 5.39-5.565 3.181 0 5.392 2.269 5.392 5.565 0 3.295-2.21 5.564-5.391 5.564Zm0-13.939c-5.014 0-8.626 3.512-8.626 8.375 0 4.862 3.612 8.374 8.626 8.374 5.013 0 8.625-3.512 8.625-8.374 0-4.863-3.666-8.375-8.625-8.375Zm18.33 13.94c-3.181 0-5.446-2.324-5.446-5.62 0-3.295 2.21-5.618 5.445-5.618 3.18 0 5.391 2.323 5.391 5.619 0 3.295-2.21 5.619-5.39 5.619Zm5.39-11.67c-1.348-1.567-3.288-2.378-5.606-2.378-4.96 0-8.41 3.458-8.41 8.429 0 4.97 3.45 8.428 8.41 8.428 2.372 0 4.42-.918 5.714-2.54v2.324h3.073V4.224h-3.235l.054 8.752Zm13.532.432c2.641 0 4.636 1.783 5.013 4.376h-9.973c.323-2.593 2.264-4.376 4.96-4.376Zm0-2.702c-4.744 0-8.141 3.512-8.141 8.375 0 4.916 3.558 8.374 8.734 8.374 2.695 0 4.905-.918 6.415-2.647l.054-.054-1.779-2.053-.108.108c-1.132 1.242-2.642 1.89-4.528 1.89-3.019 0-5.23-1.728-5.661-4.484h12.938v-.108c.054-.27.054-.648.054-.918.054-5.025-3.288-8.483-7.978-8.483Zm22.75 11.67c-.971 1.46-2.48 2.27-4.367 2.27-3.289 0-5.499-2.27-5.499-5.565 0-3.296 2.264-5.565 5.499-5.565 1.887 0 3.396.756 4.367 2.269l.054.108 2.479-1.567-.053-.108c-1.294-2.215-3.774-3.512-6.793-3.512-5.068 0-8.787 3.512-8.787 8.375 0 4.862 3.719 8.374 8.787 8.374 3.019 0 5.499-1.297 6.793-3.566l.053-.108-2.479-1.513-.054.108Zm12.237 2.27c-3.18 0-5.391-2.324-5.391-5.565 0-3.296 2.211-5.565 5.391-5.565 3.181 0 5.391 2.269 5.391 5.565 0 3.295-2.21 5.564-5.391 5.564Zm0-13.94c-5.013 0-8.625 3.512-8.625 8.375 0 4.862 3.612 8.374 8.625 8.374 5.014 0 8.626-3.512 8.626-8.374 0-4.863-3.666-8.375-8.626-8.375Zm22.211 0-5.499 12.643-5.391-12.643h-3.288l7.062 16.155.054.054h3.127L169 10.707h-3.127ZM17.149 0C7.698 0 0 7.638 0 16.957v.076l2.896 1.68h.076c1.83-1.221 4.04-1.68 6.25-1.298 1.524.306 2.973.993 4.116 2.063l.533.458.305-.611c.305-.611.61-1.146.915-1.68.152-.23.305-.382.457-.612l.305-.382-.381-.305c-1.6-1.299-3.506-2.215-5.564-2.597-1.981-.382-3.963-.306-5.792.306C5.488 8.02 10.823 3.743 17.149 3.743c3.582 0 6.935 1.375 9.45 3.895a12.55 12.55 0 0 1 3.583 6.417c-1.143-.382-2.363-.535-3.582-.535h-.23c-.456 0-.914.076-1.447.076h-.076c-.153 0-.382.077-.534.077-.305.076-.534.076-.838.152l-.229.077-.686.229h-.076c-.534.153-.991.382-1.525.61-.228.077-.457.23-.685.383h-.077c-1.143.687-2.21 1.527-3.048 2.597l-.076.153c-.23.305-.382.534-.534.687-.152.153-.229.382-.381.611l-.076.153c-.153.23-.229.458-.305.611v.076a9.112 9.112 0 0 0-.61 1.528v.076a13.022 13.022 0 0 0-.61 3.896v1.451c0 .153.077.382.077.535.38 1.833 1.219 3.59 2.515 5.194l.076.076.076-.076c.534-.611 1.753-2.52 1.905-3.666a7.914 7.914 0 0 1-.914-3.667 8.12 8.12 0 0 1 7.698-8.096h.305c1.753-.077 3.506.458 4.954 1.45h.076l2.896-1.68v-.076c0-4.507-1.753-8.784-5.03-11.992C25.99 1.757 21.72 0 17.149 0Z" fill="#F07"/></svg>
